static/fa/svgs/solid/house-flag.svg

<svg xmlns="http://www.w3.org/2000/svg" viewBox="0 0 640 512"><!--! Font Awesome Free 6.1.1 by @fontawesome - https://fontawesome.com License - https://fontawesome.com/license/free (Icons: CC BY 4.0, Fonts: SIL OFL 1.1, Code: MIT License) Copyright 2022 Fonticons, Inc.--><path d="M480 0c17.7 0 32 14.33 32 32h112c8.8 0 16 7.16 16 16v128c0 8.8-7.2 16-16 16H512v320h-64V32c0-17.67 14.3-32 32-32zm-64 512h.8H352c-17.7 0-32-14.3-32-32v-96c0-17.7-14.3-32-32-32h-64c-17.7 0-32 14.3-32 32v96c0 17.7-14.3 32-32 32H96c-17.67 0-32-14.3-32-32V288H31.1c-12.49 0-24.469-8.3-29.115-20.9-4.646-12.6-.98-26.7 9.185-35.4l224.03-192c12-10.27 29.6-10.27 41.6 0L416 159v353z"/></svg>

<svg xmlns="http://www.w3.org/2000/svg" viewBox="0 0 640 512"><!--! Font Awesome Free 6.1.1 by @fontawesome - https://fontawesome.com License - https://fontawesome.com/license/free (Icons: CC BY 4.0, Fonts: SIL OFL 1.1, Code: MIT License) Copyright 2022 Fonticons, Inc. --><path d="M480 0C497.7 0 512 14.33 512 32H624C632.8 32 640 39.16 640 48V176C640 184.8 632.8 192 624 192H512V512H448V32C448 14.33 462.3 0 480 0V0zM416 512H416.1L416.8 512H352C334.3 512 320 497.7 320 480V384C320 366.3 305.7 352 288 352H224C206.3 352 192 366.3 192 384V480C192 497.7 177.7 512 160 512H96C78.33 512 64 497.7 64 480V288H31.1C18.61 288 6.631 279.7 1.985 267.1C-2.661 254.5 1.005 240.4 11.17 231.7L235.2 39.7C247.2 29.43 264.8 29.43 276.8 39.7L416 159V512z"/></svg>
